X:390
T:Slider's Joy
T:Solid Joy
T:Disorderly
A:Leeds
C:Richard Robinson
M:7/8
N:Anagram's of Soldiers' Joy with a few letters missing. Better contributions
N:gratefully received.
N:Soldier's Joy, with bits missing
O:England
Z:Richard Robinson 
%%Copyright:Richard Robinson
%%TUNEURL: http://www.leeds.ac.uk/music/Info/RRTuneBk/gettune/00000746.html
%%ID:00000746
K:D
AFDF ADF | Add AdGd | AFDF ADF | GEE BEGE | \
AFDF ADF | Add GdAd |
M:8/8
fafd egec | \
M:6/8
Add GBB ::\
M:7/8
A2 f2 faf | eAA efge | A2 f2 faf | edcB GBB |
A2 f2 faf | eAA efge | \
M:8/8
fafd egec | \
M:6/8
Add GBB :|
